app/dist/common/images/motorsport-games.svg

<svg height="18" viewBox="0 0 18 18" width="18" xmlns="http://www.w3.org/2000/svg"><path d="m0 0h18v18h-18z" fill="#f0f3fa"/><path d="m11.23 13h-7.23l.56-1.67 1.85-1.93-.45-1.4h1.54l.5 1.39-1.79 2.11h4.27l.52-.83h-1.33c-.37 0-.68-.25-.67-.6l.03-.16.25-.91h2.86c.46 0 .86.4.86.85a.9.9 0 0 1 -.05.28l-.93 2.28a.85.85 0 0 1 -.8.59zm-4.81-7.43c.1-.34.36-.57.64-.57h6.3c.45 0 .75.56.6 1.09l-.27.91h-7.69z" fill="#fe0000"/></svg>

<!-- by TradingView --><svg width="18" height="18" viewBox="0 0 18 18" xmlns="http://www.w3.org/2000/svg"><path fill="#F0F3FA" d="M0 0h18v18H0z"/><path d="M11.23 13H4l.56-1.67L6.41 9.4 5.96 8H7.5L8 9.39 6.21 11.5h4.27l.52-.83H9.67c-.37 0-.68-.25-.67-.6l.03-.16.25-.91h2.86c.46 0 .86.4.86.85a.9.9 0 0 1-.05.28l-.93 2.28a.85.85 0 0 1-.8.59ZM6.42 5.57c.1-.34.36-.57.64-.57h6.3c.45 0 .75.56.6 1.09l-.27.91H6l.42-1.43Z" fill="#FE0000"/></svg>
